packages/foundations/assets/icons/functional/images/audio & video/fast_forward_10_28.svg

<svg width="28" height="28" viewBox="0 0 28 28" fill="none" xmlns="http://www.w3.org/2000/svg">
<g clip-path="url(#clip0_184_280)">
<path fill-rule="evenodd" clip-rule="evenodd" d="M3.5 16.6163C3.5 11.2693 7.897 6.96333 13.253 7.01933L12.097 5.86633C12.0161 5.78476 11.952 5.68799 11.9086 5.58159C11.8652 5.47519 11.8432 5.36125 11.844 5.24633C11.8424 5.13129 11.8639 5.01709 11.9072 4.9105C11.9505 4.8039 12.0147 4.70709 12.0962 4.62577C12.1776 4.54446 12.2744 4.48032 12.3811 4.43713C12.4877 4.39394 12.602 4.37258 12.717 4.37433C12.943 4.37433 13.168 4.45833 13.337 4.62733L16.1 7.38533C16.27 7.55534 16.354 7.77933 16.354 8.00533C16.354 8.23033 16.269 8.45533 16.1 8.62433L13.338 11.3813C13.2564 11.4623 13.1597 11.5264 13.0533 11.57C12.9469 11.6136 12.833 11.6358 12.718 11.6353C12.6028 11.6372 12.4884 11.6159 12.3815 11.5728C12.2747 11.5296 12.1777 11.4653 12.0961 11.3839C12.0146 11.3025 11.9503 11.2055 11.907 11.0987C11.8637 10.9919 11.8422 10.8775 11.844 10.7623C11.844 10.5373 11.928 10.3123 12.097 10.1433L13.479 8.76434C9.109 8.56734 5.248 12.0573 5.248 16.5883C5.248 18.4733 5.924 20.3313 7.193 21.7663C7.32373 21.9245 7.3936 22.1242 7.39 22.3293C7.39 22.8363 7.023 23.2293 6.516 23.2293C6.262 23.2293 6.009 23.1173 5.868 22.9203C4.318 21.1753 3.5 18.9243 3.5 16.6163ZM9.617 16.4283C9.617 16.1183 9.814 15.7813 10.096 15.6403L12.661 14.3463C12.7757 14.2915 12.9009 14.2625 13.028 14.2613C13.422 14.2613 13.93 14.5433 13.93 15.1343V21.8793H15.762C15.8771 21.8774 15.9915 21.8987 16.0982 21.9418C16.205 21.985 16.302 22.0491 16.3835 22.1304C16.465 22.2117 16.5294 22.3086 16.5727 22.4153C16.6161 22.5219 16.6376 22.6362 16.636 22.7513C16.6347 22.9826 16.5421 23.2041 16.3785 23.3675C16.2148 23.531 15.9933 23.6233 15.762 23.6243H10.519C10.2877 23.6233 10.0662 23.531 9.9025 23.3675C9.73885 23.2041 9.64632 22.9826 9.645 22.7513C9.64338 22.6362 9.66489 22.5219 9.70827 22.4153C9.75164 22.3086 9.81599 22.2117 9.8975 22.1304C9.97901 22.0491 10.076 21.985 10.1828 21.9418C10.2895 21.8987 10.4039 21.8774 10.519 21.8793H12.182V16.5693L10.885 17.2163C10.7706 17.271 10.6457 17.3 10.519 17.3013C10.039 17.3013 9.617 16.8793 9.617 16.4283ZM21.005 13.9993C23.035 13.9993 24.5 15.3123 24.5 17.5183V20.0783C24.5 22.3133 22.978 23.5963 21.005 23.6253C19.032 23.6533 17.538 22.3123 17.538 20.1353V17.4333C17.538 15.3133 19.088 14.0003 21.005 14.0003V13.9993ZM21.005 15.7453C19.793 15.7453 19.257 16.2793 19.257 17.4333V20.1353C19.257 21.4013 19.764 21.9083 21.005 21.9083C22.217 21.9083 22.781 21.3173 22.781 20.0783V17.5183C22.781 16.2513 22.273 15.7453 21.005 15.7453Z" fill="#1A1C1F"/>
</g>
<defs>
<clipPath id="clip0_184_280">
<rect width="28" height="28" fill="white"/>
</clipPath>
</defs>
</svg>

<svg xmlns="http://www.w3.org/2000/svg" width="28" height="28" fill="none"><g clip-path="url(#a)"><path fill="#1A1C1F" fill-rule="evenodd" d="M3.5 16.616c0-5.347 4.397-9.653 9.753-9.597l-1.156-1.153a.87.87 0 0 1-.253-.62.86.86 0 0 1 .873-.872c.226 0 .451.084.62.253L16.1 7.385c.17.17.254.394.254.62s-.085.45-.254.62l-2.762 2.756a.88.88 0 0 1-.62.254.86.86 0 0 1-.874-.873c0-.225.084-.45.253-.619l1.382-1.379c-4.37-.197-8.231 3.293-8.231 7.824 0 1.885.676 3.743 1.945 5.178.13.159.2.358.197.563 0 .507-.367.9-.874.9-.254 0-.507-.112-.648-.309-1.55-1.745-2.368-3.996-2.368-6.304m6.117-.188c0-.31.197-.647.479-.788l2.565-1.294a.9.9 0 0 1 .367-.085c.394 0 .902.282.902.873v6.745h1.832a.86.86 0 0 1 .874.872.88.88 0 0 1-.874.873h-5.243a.878.878 0 0 1-.621-1.494.86.86 0 0 1 .621-.25h1.663v-5.31l-1.297.646a.9.9 0 0 1-.366.085c-.48 0-.902-.422-.902-.873M21.005 14c2.03 0 3.495 1.313 3.495 3.52v2.56c0 2.234-1.522 3.517-3.495 3.546s-3.467-1.313-3.467-3.49v-2.702c0-2.12 1.55-3.433 3.467-3.433m0 1.746c-1.212 0-1.748.534-1.748 1.688v2.702c0 1.266.507 1.773 1.748 1.773 1.212 0 1.776-.59 1.776-1.83v-2.56c0-1.267-.508-1.773-1.776-1.773" clip-rule="evenodd"/></g><defs><clipPath id="a"><path fill="#fff" d="M0 0h28v28H0z"/></clipPath></defs></svg>
